X: 1
T: Run, Johnny, Run
%O: from Viola Ruth
B: Lee Owens "Advanced Square Dance Figures of the West and Southwest" p.104
R: jig
Z: 2010 John Chambers <jc:trillian.mit.edu>
M: 6/8
L: 1/8
K: G
z |\
"G"D[GB,][GB,] [GB,][GB,][BG] | [GB,][GB,][GB,] [GB,][GB,][BG] |\
"D7"ADD DFG | ADD DEF |
"G"[GB,][GB,][GB,] [GB,][GB,][BG] | [GB,][GB,][GB,] [GB,][GB,][BG] |\
"D7"ADD DEF | "G"G3 G2 :|
|: (B/c/) |\
"G"ddB ddB | GGG G2(B/c/) | "C"eee eec | "D7"AAA A2(B/c/) |
"G"ddB ddB | GGG G2B | "D7"ADD DEF | "G"G3 G2 :|

%%sep 1 1 500

